static/images/mobile/copyright/wikipedia-wordmark-su.svg

<?xml version="1.0" encoding="UTF-8"?>
<svg width="120px" height="18px" viewBox="0 0 120 18" version="1.1" xmlns="http://www.w3.org/2000/svg" xmlns:xlink="http://www.w3.org/1999/xlink">
    <title>su-wordmark</title>
    <g id="Page-1" stroke="none" stroke-width="1" fill="none" fill-rule="evenodd">
        <path d="M27.886484,0 C28.0500361,0.163552127 28.0500361,0.735984572 27.886484,0.899536699 C26.0874126,1.1176062 25.7603053,2.18069503 25.1878739,3.43459467 L18.7548235,17.3365255 C18.5640127,17.7454058 18.4004606,17.9634753 18.100615,17.9634753 C17.8280282,17.9634753 17.6099587,17.7454058 17.4736652,17.3365255 L13.7937424,9.43150599 L9.78671525,17.3365255 C9.62316312,17.7454058 9.43235231,17.9634753 9.13250674,17.9634753 C8.85991986,17.9634753 8.66910905,17.7454058 8.50555692,17.3365255 L2.56316398,3.38007729 C1.74540395,1.44471046 1.69088456,1.03583014 0.13714137,0.899536699 C-0.026410757,0.735984572 -0.0536694448,0.163552127 0.109882682,0 C1.39103899,0.0272586878 1.85443971,0.0545173757 2.94478561,0.0545173757 C4.00787343,0.0545173757 4.68934264,0.0272586878 5.97049996,0 C6.13405108,0.163552127 6.13405108,0.735984572 5.97049996,0.899536699 C4.25320364,1.09034751 4.17142656,1.52648652 4.85289376,3.08023173 L9.84123262,14.4471046 L9.97752606,14.4471046 L13.0032404,8.25938241 L10.7135106,3.38007729 C9.81397495,1.44471046 9.59590342,1.06308883 8.42378086,0.899536699 C8.26022974,0.735984572 8.23297105,0.163552127 8.39652217,0 C8.65820527,0.00817760635 8.88308941,0.0163552127 9.09914185,0.0237968345 L9.52775771,0.0374806958 C9.88893558,0.0477027037 10.2773721,0.0545173757 10.8225454,0.0545173757 C11.8856332,0.0545173757 12.3217742,0.0272586878 13.303086,0 C13.4666381,0.163552127 13.4666381,0.735984572 13.303086,0.899536699 C12.1582221,1.06308883 12.2672569,1.52648652 13.0032404,3.08023173 L14.3389161,5.8333592 L14.4752096,5.96965264 L15.91992,3.24378385 C16.7376796,1.66277996 16.8739731,1.06308883 15.7018505,0.899536699 C15.5382984,0.735984572 15.5382984,0.163552127 15.7018505,0 C16.7104209,0.0272586878 17.228338,0.0545173757 17.8552868,0.0545173757 C18.4822357,0.0545173757 19.1637049,0.0272586878 19.8451711,0 C20.0087232,0.163552127 20.0087232,0.735984572 19.8451711,0.899536699 C18.4277203,1.1176062 17.8280272,2.18069503 17.146561,3.43459467 L15.1566768,7.25081096 L18.6457888,14.4471046 L18.7820822,14.4471046 L23.9612329,3.24378385 C24.5881817,1.77181471 24.560922,1.03583014 22.7891093,0.899536699 C22.6255572,0.735984572 22.6255572,0.163552127 22.7891093,0 C24.0702667,0.0272586878 24.8607706,0.0545173757 25.4877194,0.0545173757 C26.1146683,0.0545173757 26.7961375,0.0272586878 27.886484,0 Z M28.923676,5.60317472 C29.6324019,5.60317472 31.6535831,5.55067651 31.6535831,5.55067651 L31.6798322,5.60317472 L31.6798322,6.18065507 C31.6798322,6.25940239 31.627334,6.31190061 31.5223376,6.31190061 L30.9711064,6.3654084 C30.1573841,6.44314614 29.8686439,6.65414858 29.8686439,7.18014029 L29.8686439,15.9210929 C29.8686439,16.4985732 30.1311349,16.8398116 30.9711064,16.9185589 L31.5223376,16.9720667 C31.6010849,16.9720667 31.6798322,17.0235553 31.6798322,17.1285518 L31.6798322,17.679783 L31.6535831,17.7332908 C31.6535831,17.7332908 29.658651,17.679783 28.8449287,17.679783 C28.1099537,17.679783 26.0625234,17.7332908 26.0625234,17.7332908 L26.0100252,17.679783 L26.0100252,17.1285518 C26.0100252,17.0235553 26.0887725,16.9720667 26.1937689,16.9720667 L26.7187511,16.9185589 C27.5849716,16.8398116 27.8474627,16.4198259 27.8474627,15.9210929 L27.8474627,7.18014029 C27.8474627,6.60366952 27.5314638,6.44415572 26.7187511,6.36742756 L26.1937689,6.31291019 C26.0887725,6.31291019 26.0100252,6.28868024 26.0100252,6.20791376 L26.0100252,5.60317472 L26.0362743,5.55067651 C26.0362743,5.55067651 28.1099537,5.60317472 28.923676,5.60317472 Z M37.6151591,15.9210929 C37.6151591,16.4985732 37.9563975,16.7873134 38.7176216,16.9185589 L39.0063618,16.9720667 C39.0851091,16.9973062 39.1638564,17.0235553 39.1638564,17.1285518 L39.1638564,17.679783 L39.1376073,17.7332908 C39.1376073,17.7332908 37.4839136,17.679783 36.6964404,17.679783 C35.9614654,17.679783 33.8090386,17.7332908 33.8090386,17.7332908 L33.7565404,17.679783 L33.7565404,17.1285518 C33.7565404,17.0235553 33.8352878,16.9720667 33.9402842,16.9720667 L34.4652663,16.9185589 C35.2527395,16.8398116 35.5939779,16.4198259 35.5939779,15.9210929 L35.5939779,7.18014029 C35.5939779,6.60366952 35.3052377,6.44415572 34.4652663,6.36742756 L33.9402842,6.31291019 C33.8352878,6.31291019 33.7565404,6.28868024 33.7565404,6.20791376 L33.7565404,5.60317472 L33.7827895,5.55067651 C33.7827895,5.55067651 35.9352163,5.60317472 36.7489386,5.60317472 C37.4849232,5.60317472 39.1376073,5.55067651 39.1376073,5.55067651 L39.1638564,5.60317472 L39.1638564,6.18065507 C39.1638564,6.25940239 39.1113582,6.2856515 39.0063618,6.31190061 L38.7176216,6.3654084 C37.9038993,6.52189346 37.6151591,6.65414858 37.6151591,7.18014029 L37.6151591,11.1437554 C38.4813797,11.1437554 38.9801127,10.6985302 40.1350734,9.46381258 C41.1850377,8.3078423 41.99876,7.33864451 41.99876,6.8389019 C41.99876,6.62789947 41.762518,6.39266709 41.2375359,6.31291019 C41.1325394,6.28767066 41.0800412,6.26041197 41.0800412,6.18166465 L41.0800412,5.57692562 L41.1062903,5.55168609 C41.1062903,5.55168609 43.232468,5.6041843 43.9936921,5.6041843 C44.6761689,5.6041843 45.8311296,5.55168609 45.8311296,5.55168609 L45.9098769,5.57692562 L45.9098769,6.18166465 C45.9098769,6.26041197 45.8311296,6.31291019 45.699884,6.31291019 C44.6761689,6.39165751 43.967443,6.44415572 43.0224751,7.5203691 L40.7650519,10.1180211 C40.3188171,10.5915146 40.1613225,10.8792452 40.1613225,11.0902476 C40.1613225,11.2477423 40.2663189,11.3779782 40.3975645,11.5354729 L44.3611796,16.3128103 C44.6761689,16.6792882 45.3061474,16.8377924 45.8311296,16.9417793 L45.9623751,16.9670188 C46.0411224,16.9932679 46.1461188,17.0457661 46.1461188,17.1245134 L46.1461188,17.6757447 L46.0673715,17.7019938 C46.0673715,17.7019938 44.6761689,17.6757447 43.9411939,17.6757447 C43.2849662,17.6757447 42.3399984,17.7019938 42.3399984,17.7019938 L42.3137492,17.6757447 L42.3137492,17.3607554 C42.3137492,17.0185074 42.2875001,16.7317864 41.9200126,16.3118007 L39.0063618,12.6884144 C38.6126252,12.1624227 38.1926395,12.0331963 37.6151591,12.0331963 L37.6151591,15.9210929 L37.6151591,15.9210929 L37.6151591,15.9210929 Z M51.7664564,15.9210929 C51.7664564,16.4985732 52.0289475,16.8398116 52.8689189,16.9185589 L53.4201502,16.9720667 C53.4988975,16.9720667 53.5776448,17.0235553 53.5776448,17.1285518 L53.5776448,17.679783 L53.5513957,17.7332908 C53.5513957,17.7332908 51.5564636,17.679783 50.7427413,17.679783 C50.0077663,17.679783 47.960336,17.7332908 47.960336,17.7332908 L47.9078377,17.679783 L47.9078377,17.1285518 C47.9078377,17.0235553 47.9865851,16.9720667 48.0915815,16.9720667 L48.6165636,16.9185589 C49.4827841,16.8398116 49.7452752,16.4198259 49.7452752,15.9210929 L49.7452752,7.18014029 C49.7452752,6.60366952 49.4302859,6.44415572 48.6165636,6.36742756 L48.0915815,6.31291019 C47.9865851,6.31291019 47.9078377,6.28868024 47.9078377,6.20791376 L47.9078377,5.60317472 L47.9340868,5.55067651 C47.9340868,5.55067651 50.0077663,5.60317472 50.8214886,5.60317472 C51.5302145,5.60317472 53.5513957,5.55067651 53.5513957,5.55067651 L53.5776448,5.60317472 L53.5776448,6.18065507 C53.5776448,6.25940239 53.5251466,6.31190061 53.4201502,6.31190061 L52.8689189,6.3654084 C52.0551966,6.44314614 51.7664564,6.65414858 51.7664564,7.18014029 L51.7664564,15.9210929 L51.7664564,15.9210929 Z M57.4382827,7.23162892 C57.4382827,6.41790661 57.0970443,6.39165751 55.8633363,6.31291019 C55.7058416,6.31291019 55.6795925,6.23517245 55.6795925,6.18166465 L55.6795925,5.5779352 L55.7320907,5.55168609 C56.1258273,5.55168609 57.6745246,5.6041843 58.4357487,5.6041843 C59.1707237,5.6041843 60.220688,5.55168609 61.1919049,5.55168609 C64.917259,5.55168609 65.5997357,7.38811398 65.5997357,8.7550867 C65.5997357,10.3310427 64.8385116,12.7974491 61.1131576,12.7974491 C60.45693,12.7974491 59.9319478,12.7439414 59.4584543,12.5349581 L59.4584543,16.0503192 C59.4584543,16.6277996 59.7734436,16.7600547 60.6144246,16.8902906 L61.1404163,16.969038 C61.2454127,16.9952871 61.3241601,17.0225458 61.3241601,17.1265326 L61.3241601,17.6777639 L61.2989205,17.7302621 C61.2989205,17.7302621 59.198992,17.6777639 58.3852697,17.6777639 C57.6502947,17.6777639 55.6816117,17.7302621 55.6816117,17.7302621 L55.6553626,17.6777639 L55.6553626,17.1265326 C55.6553626,17.0215362 55.7078608,16.9952871 55.8128572,16.969038 L56.3640885,16.8902906 C57.1778108,16.7852942 57.4403018,16.5490523 57.4403018,16.0503192 L57.4382827,7.23162892 L57.4382827,7.23162892 L57.4382827,7.23162892 Z M59.4594639,11.7999831 C59.984446,12.0109855 60.6406737,12.0362251 61.1656558,12.0362251 C62.7416118,12.0362251 63.4998072,11.089238 63.4998072,9.07007598 C63.4998072,6.8126528 62.476092,6.31391977 61.0344103,6.31391977 C59.7734436,6.31391977 59.4584543,6.55016173 59.4584543,7.23263851 L59.4594639,11.7999831 L59.4594639,11.7999831 L59.4594639,11.7999831 Z M76.9494023,5.54420509 L72.0278613,5.54420509 L70.1227486,5.54420509 L67.4767589,5.49130305 L67.4502978,5.54420509 L67.4502978,6.12632952 C67.4502978,6.15278054 67.4502978,6.20568259 67.6090564,6.2321639 L68.2176339,6.28506594 C68.9585109,6.33796799 69.2760302,6.4967448 69.2760302,7.10532024 L69.2760302,16.1281478 C69.2760302,16.6573399 69.0378902,16.8690188 68.2176339,16.9484021 L67.6090564,17.0013042 C67.4767569,17.0013042 67.4502978,17.0806572 67.4502978,17.1335997 L67.4502978,17.7157241 L67.4767589,17.7686261 L70.0962895,17.7157241 L77.0817018,17.7157241 C77.134624,16.8689986 77.3198408,15.7841432 77.6373601,14.4876089 L76.9758624,14.4082559 C76.5525047,15.7577023 75.9703843,16.8161066 74.3563328,16.8161066 L72.0807815,16.8161066 C71.6045036,16.8161066 71.3134444,16.683801 71.3134444,16.1810701 L71.3134444,11.7622651 L73.2979365,11.7622651 C73.9858933,11.7622651 74.2240332,12.0533173 74.3298727,12.5825194 L74.4621722,13.1646338 C74.4621722,13.2439868 74.5150944,13.2969394 74.6473909,13.2969394 L75.0972098,13.2969394 L75.150132,13.2440373 C75.0972098,12.6354619 74.9913734,12.0797986 74.9913734,11.4183009 C74.9913734,10.7832643 75.0972128,10.0423934 75.150132,9.46026895 C75.150132,9.40736691 75.150132,9.38091589 75.0972098,9.38091589 L74.6473909,9.38091589 C74.5415515,9.38091589 74.4886323,9.43381793 74.4886323,9.51321138 L74.3298727,10.0688747 C74.2240332,10.5980668 74.0388135,10.9155901 73.2979365,10.9155901 L71.3134444,10.9155901 L71.3134444,6.99952625 C71.3134444,6.54970742 71.5780435,6.44386294 72.0807815,6.44386294 L74.1975731,6.44386294 C75.891005,6.44386294 76.393745,7.84624166 76.6583431,8.79879146 L77.3198408,8.71943839 C77.134622,7.71395626 76.9758624,6.68202311 76.9494023,5.54424548 M73.4566961,0.172890752 L71.3399045,3.50684029 C71.1811449,3.77143128 71.1811449,3.95664902 71.1811449,4.11541573 C71.1811449,4.27417235 71.3663646,4.43292897 71.5515834,4.43292897 C71.7368021,4.43292897 71.9220219,4.30063347 72.3189205,3.90373688 L75.3618088,1.01960617 L75.2824255,0.728543959 C75.2295032,0.702092936 75.1765861,0.64919089 75.1236668,0.596248461 C74.911988,0.411030725 74.5680076,0.119968514 73.8271316,0.119968514 C73.694832,0.119968514 73.5360724,0.146419537 73.4566931,0.17287056 M79.9923229,16.9720667 L80.5960524,16.9185589 C81.3845351,16.8398116 81.6470262,16.6035696 81.6470262,15.7908569 L81.6470262,7.12865166 C81.6470262,6.44415572 81.4612633,6.44415572 80.5960524,6.36742756 L80.0205912,6.31291019 C79.9155947,6.31291019 79.8348283,6.26041197 79.8348283,6.18166465 L79.8348283,5.6041843 L79.8600678,5.55168609 C79.8600678,5.55168609 82.1709988,5.6041843 82.6444923,5.6041843 C83.1412061,5.6041843 85.4268976,5.55168609 86.1093744,5.55168609 C90.4929752,5.55168609 92.6464115,8.2815932 92.6464115,11.7727244 C92.6464115,16.3673277 89.3905127,17.7302621 86.4778714,17.7302621 C84.3779429,17.7302621 83.4602337,17.6777639 82.6465114,17.6777639 C81.8580287,17.6777639 79.8630965,17.7302621 79.8630965,17.7302621 L79.8368474,17.6777639 L79.8368474,17.1265326 C79.8348283,17.050814 79.8883361,16.9720667 79.9923229,16.9720667 L79.9923229,16.9720667 Z M85.8468833,16.9720667 C88.7332755,16.9720667 90.3627393,15.8968629 90.3627393,12.2199688 C90.3627393,9.49107127 89.7580002,6.31291019 85.3481503,6.31291019 C84.3244351,6.31291019 83.6682074,6.47040483 83.6682074,7.12865166 L83.6682074,15.7908569 C83.6682074,16.5238127 83.8509416,16.9720667 85.8468833,16.9720667 Z M98.8432199,15.9210929 C98.8432199,16.4985732 99.105711,16.8398116 99.9456824,16.9185589 L100.496914,16.9720667 C100.575661,16.9720667 100.654408,17.0235553 100.654408,17.1285518 L100.654408,17.679783 L100.628159,17.7332908 C100.628159,17.7332908 98.6332271,17.679783 97.8205143,17.679783 C97.0845298,17.679783 95.038109,17.7332908 95.038109,17.7332908 L94.9846012,17.679783 L94.9846012,17.1285518 C94.9846012,17.0235553 95.0633485,16.9720667 95.168345,16.9720667 L95.6943367,16.9185589 C96.5595476,16.8398116 96.8230483,16.4198259 96.8230483,15.9210929 L96.8230483,7.18014029 C96.8230483,6.60366952 96.5070494,6.44415572 95.6943367,6.36742756 L95.168345,6.31291019 C95.0633485,6.31291019 94.9846012,6.28868024 94.9846012,6.20791376 L94.9846012,5.60317472 L95.0108503,5.55067651 C95.0108503,5.55067651 97.0845298,5.60317472 97.8962329,5.60317472 C98.6049588,5.60317472 100.62715,5.55067651 100.62715,5.55067651 L100.652389,5.60317472 L100.652389,6.18065507 C100.652389,6.25940239 100.598881,6.31190061 100.494894,6.31190061 L99.9436632,6.3654084 C99.1299409,6.44314614 98.8412008,6.65414858 98.8412008,7.18014029 L98.8432199,15.9210929 L98.8432199,15.9210929 L98.8432199,15.9210929 Z M106.929964,16.9185589 L107.691188,16.9720667 C107.796184,16.9720667 107.901181,17.050814 107.901181,17.18105 L107.901181,17.679783 L107.848683,17.7332908 C107.848683,17.7332908 104.98753,17.679783 104.357552,17.679783 C103.674065,17.679783 101.994122,17.7332908 101.994122,17.7332908 L101.940615,17.679783 L101.940615,17.18105 C101.940615,17.050814 102.019362,16.9720667 102.151617,16.9720667 C103.307587,16.8933194 103.961796,16.682317 104.696771,15.0023741 L110.523063,1.351829 C110.810793,0.669352224 111.021796,0.405851574 111.416542,0.405851574 C111.78302,0.405851574 111.915275,0.669352224 112.124258,1.19433436 L117.505325,15.4213502 C117.873822,16.446075 118.398804,16.838802 119.448769,16.9437984 L119.737509,16.969038 C119.868754,16.969038 120,17.0477853 120,17.1800404 L120,17.6777639 L119.921253,17.7302621 C119.921253,17.7302621 117.900071,17.6777639 116.876356,17.6777639 C115.957638,17.6777639 113.384216,17.7302621 113.384216,17.7302621 L113.358976,17.6777639 L113.358976,17.1800404 C113.358976,17.0477853 113.411474,16.969038 113.544739,16.969038 L114.279714,16.9165398 C115.27617,16.838802 115.645677,16.5217936 115.382176,15.7878282 L113.780981,11.3507195 L108.321167,11.3507195 C107.691188,11.3507195 107.533693,11.455716 107.403457,11.7959448 L105.88,15.6030748 C105.617509,16.2613217 105.958747,16.8398116 106.929964,16.9185589 L106.929964,16.9185589 Z M113.360995,10.2492666 L110.814832,3.24176469 L110.762334,3.24176469 L108.137423,9.90903782 C108.032426,10.1725385 108.215161,10.2502762 108.792641,10.2502762 L113.360995,10.2502762 L113.360995,10.2492666 Z" id="su-wordmark" fill="#000000" fill-rule="nonzero"></path>
    </g>
</svg>

<svg xmlns="http://www.w3.org/2000/svg" width="120" height="18"><path fill="#000" fill-rule="nonzero" d="M27.886 0c.164.164.164.736 0 .9-1.799.218-2.126 1.28-2.698 2.535l-6.433 13.902c-.191.408-.355.626-.654.626-.273 0-.491-.218-.627-.626l-3.68-7.905-4.007 7.905c-.164.408-.355.626-.654.626-.273 0-.464-.218-.627-.626L2.563 3.38C1.745 1.445 1.691 1.036.137.9-.026.736-.053.164.11 0 1.39.027 1.854.055 2.945.055 4.008.055 4.689.027 5.97 0c.164.164.164.736 0 .9-1.717.19-1.799.626-1.117 2.18L9.84 14.447h.137l3.025-6.188-2.29-4.879C9.815 1.445 9.597 1.063 8.424.9 8.26.736 8.234.164 8.398 0l.702.024.429.013c.36.01.75.018 1.295.018 1.063 0 1.499-.028 2.48-.055.164.164.164.736 0 .9-1.145.163-1.036.626-.3 2.18l1.336 2.753.136.137 1.445-2.726c.818-1.581.954-2.18-.218-2.344-.164-.164-.164-.736 0-.9 1.008.027 1.526.055 2.153.055S19.164.027 19.845 0c.164.164.164.736 0 .9-1.417.218-2.017 1.28-2.698 2.535l-1.99 3.816 3.489 7.196h.136l5.18-11.203c.626-1.472.599-2.208-1.173-2.344-.163-.164-.163-.736 0-.9 1.281.027 2.072.055 2.699.055.627 0 1.308-.028 2.398-.055Zm1.038 5.603c.708 0 2.73-.052 2.73-.052l.026.052v.578c0 .078-.053.13-.158.13l-.55.054c-.815.078-1.103.29-1.103.815v8.741c0 .578.262.919 1.102.998l.551.053c.08 0 .158.052.158.157v.55l-.026.054s-1.995-.053-2.81-.053c-.734 0-2.781.053-2.781.053l-.053-.053v-.551c0-.105.079-.157.184-.157l.525-.053c.866-.08 1.128-.5 1.128-.998v-8.74c0-.577-.316-.737-1.128-.814l-.525-.054c-.105 0-.184-.024-.184-.105v-.605l.026-.052s2.074.052 2.888.052Zm8.691 10.318c0 .578.341.866 1.103.998l.288.053c.08.025.158.052.158.157v.55l-.026.054s-1.654-.053-2.442-.053c-.735 0-2.887.053-2.887.053l-.052-.053v-.551c0-.105.078-.157.183-.157l.525-.053c.788-.08 1.129-.5 1.129-.998v-8.74c0-.577-.289-.737-1.129-.814l-.525-.054c-.105 0-.183-.024-.183-.105v-.605l.026-.052s2.152.052 2.966.052c.736 0 2.389-.052 2.389-.052l.026.052v.578c0 .078-.053.105-.158.13l-.288.054c-.814.157-1.103.29-1.103.815v3.964c.866 0 1.365-.445 2.52-1.68C41.185 8.308 42 7.339 42 6.839c0-.211-.236-.446-.761-.526-.105-.025-.158-.053-.158-.131v-.605l.026-.025s2.126.052 2.888.052c.682 0 1.837-.052 1.837-.052l.079.025v.605c0 .078-.079.13-.21.13-1.024.08-1.733.132-2.678 1.208l-2.257 2.598c-.446.474-.604.761-.604.972 0 .158.105.288.237.445l3.963 4.778c.315.366.945.525 1.47.629l.131.025c.08.026.184.079.184.158v.55l-.079.027s-1.39-.026-2.126-.026c-.656 0-1.601.026-1.601.026l-.026-.026v-.315c0-.342-.026-.63-.394-1.05l-2.914-3.623c-.393-.526-.813-.655-1.39-.655v3.888Zm14.151 0c0 .578.263.919 1.103.998l.551.053c.079 0 .158.052.158.157v.55l-.027.054s-1.995-.053-2.808-.053c-.735 0-2.783.053-2.783.053l-.052-.053v-.551c0-.105.079-.157.184-.157l.525-.053c.866-.08 1.128-.5 1.128-.998v-8.74c0-.577-.315-.737-1.128-.814l-.525-.054c-.105 0-.184-.024-.184-.105v-.605l.026-.052s2.074.052 2.887.052c.71 0 2.73-.052 2.73-.052l.027.052v.578c0 .078-.053.13-.158.13l-.551.054c-.814.078-1.103.29-1.103.815v8.741Zm5.672-8.69c0-.813-.341-.84-1.575-.918-.157 0-.183-.078-.183-.131v-.604l.052-.026c.394 0 1.943.052 2.704.052.735 0 1.785-.052 2.756-.052 3.725 0 4.408 1.836 4.408 3.203 0 1.576-.761 4.042-4.487 4.042-.656 0-1.181-.053-1.655-.262v3.515c0 .578.315.71 1.156.84l.526.079c.105.026.184.054.184.158v.55l-.025.053s-2.1-.052-2.914-.052c-.735 0-2.703.052-2.703.052l-.027-.052v-.551c0-.105.053-.132.158-.158l.551-.079c.814-.105 1.076-.34 1.076-.84l-.002-8.818ZM59.46 11.8c.525.211 1.182.236 1.707.236 1.576 0 2.334-.947 2.334-2.966 0-2.257-1.024-2.756-2.466-2.756-1.26 0-1.576.236-1.576.919l.001 4.567Zm17.49-6.256H70.123l-2.646-.053-.027.053v.582c0 .027 0 .08.16.106l.608.053c.74.053 1.058.212 1.058.82v9.023c0 .53-.238.741-1.058.82l-.609.053c-.132 0-.159.08-.159.133v.582l.027.053 2.62-.053h6.985c.053-.847.238-1.932.555-3.228l-.661-.08c-.423 1.35-1.006 2.408-2.62 2.408h-2.275c-.476 0-.768-.132-.768-.635v-4.419h1.985c.688 0 .926.291 1.032.82l.132.583c0 .079.053.132.185.132h.45l.053-.053c-.053-.609-.159-1.164-.159-1.826 0-.635.106-1.376.16-1.958 0-.053 0-.08-.054-.08h-.45c-.105 0-.158.054-.158.133l-.16.556c-.105.53-.29.847-1.031.847h-1.985V7c0-.45.265-.556.768-.556h2.117c1.693 0 2.196 1.402 2.46 2.355l.662-.08c-.185-1.005-.344-2.037-.37-3.175M73.456.173 71.34 3.507c-.159.264-.159.45-.159.608 0 .16.185.318.37.318.186 0 .371-.132.768-.53l3.043-2.883-.08-.291a.7.7 0 0 1-.158-.133C74.912.411 74.568.12 73.827.12a1.38 1.38 0 0 0-.37.053m6.535 16.8.604-.054c.789-.08 1.051-.315 1.051-1.128V7.129c0-.685-.186-.685-1.05-.762l-.576-.054c-.105 0-.186-.053-.186-.131v-.578l.025-.052s2.311.052 2.784.052c.497 0 2.783-.052 3.465-.052 4.384 0 6.537 2.73 6.537 6.22 0 4.595-3.255 5.958-6.168 5.958-2.1 0-3.018-.052-3.831-.052-.789 0-2.784.052-2.784.052l-.026-.052v-.551a.148.148 0 0 1 .155-.155Zm5.855 0c2.886 0 4.516-1.076 4.516-4.753 0-2.729-.605-5.907-5.015-5.907-1.024 0-1.68.157-1.68.816v8.662c0 .733.183 1.181 2.179 1.181Zm12.996-1.052c0 .578.263.919 1.103.998l.55.053c.08 0 .158.052.158.157v.55l-.026.054s-1.995-.053-2.807-.053c-.736 0-2.783.053-2.783.053l-.053-.053v-.551c0-.105.078-.157.183-.157l.526-.053c.866-.08 1.129-.5 1.129-.998v-8.74c0-.577-.316-.737-1.129-.814l-.526-.054c-.105 0-.183-.024-.183-.105v-.605l.026-.052s2.074.052 2.885.052c.709 0 2.731-.052 2.731-.052l.025.052v.578c0 .078-.053.13-.157.13l-.551.054c-.814.078-1.103.29-1.103.815l.002 8.741Zm8.087.998.761.053c.105 0 .21.079.21.209v.499l-.052.053s-2.861-.053-3.491-.053c-.684 0-2.364.053-2.364.053l-.053-.053v-.499c0-.13.078-.209.21-.209 1.157-.079 1.81-.29 2.546-1.97l5.826-13.65c.288-.683.499-.946.894-.946.366 0 .498.263.707.788l5.381 14.227c.369 1.025.894 1.418 1.944 1.523l.289.025c.13 0 .262.079.262.211v.498l-.079.052s-2.02-.052-3.045-.052c-.918 0-3.492.052-3.492.052l-.025-.052v-.498c0-.132.052-.211.186-.211l.735-.052c.996-.078 1.366-.395 1.102-1.13l-1.601-4.436h-5.46c-.63 0-.787.105-.918.445l-1.523 3.807c-.262.658.079 1.237 1.05 1.316Zm6.431-6.67-2.546-7.007h-.053l-2.625 6.667c-.105.264.078.341.656.341h4.568Z"/></svg>
